X:117
T:Roxburgh Castle,aka. Le4.117
T:Untitled Hornpipe. Le4.117
M:C|
L:1/8
Q:1/4=120
B:L.Leadley MS#4 c1850
Z:Village Music Project, 2016 Ruairidh Greig
K:A
e3.f ecAc|agaf ecAc|d2fd c2 ec|(BA).B.c BcdB|
e2ef ecAc|agaf ecAc|dfed cABG|A2A2A2:|
(e/f/g)|aece Acec|aece Acec|d2fdc2ec|BABc BcdB|
e2ef ecAc|(ag).a.f ecAc|dfed cABG|A2A2A2:|

